Origami/64x64/apps/kodi.svg

<svg width="64" height="64" version="1" xmlns="http://www.w3.org/2000/svg">
 <path d="m31.99913 3.0000606c-1.571498 0-3.144046 0.5857444-4.318782 1.7604495l-23.919922 23.922591c-2.3494678 2.349408-2.3461338 6.281165 0.0034 8.630575l23.919924 23.922591c2.349468 2.34941 6.28473 2.352742 8.634198 0.0034l23.919952-23.922561c2.349466-2.34941 2.349468-6.284533 0-8.633941l-23.919986-23.922655c-1.174734-1.1747049-2.747284-1.7604495-4.318784-1.7604495z" style="opacity:.2"/>
 <path d="m31.99913 2.0000316c-1.571498 0-3.144046 0.5857444-4.318782 1.7604495l-23.919922 23.92259c-2.3494678 2.349408-2.3461338 6.281166 0.0034 8.630575l23.919924 23.922591c2.349468 2.34941 6.28473 2.352742 8.634198 0.0034l23.919952-23.922561c2.349466-2.349409 2.349468-6.284533 0-8.633941l-23.919986-23.922654c-1.174734-1.1747049-2.747284-1.7604495-4.318784-1.7604495z" style="fill:#31afe1"/>
 <path d="m 18,14.440626 -5.999999,6.003905 0,25.101563 L 18,51.55 18,51.51875 32.0625,37.452342 46.082031,51.471874 50.328123,47.22578 36.308594,33.210157 50.539061,18.983594 46.296875,14.741407 18,43.034374 18,14.440626 Z" style="opacity:.2"/>
 <path d="m18 13.441408-5.999999 6.003906v25.101562l5.999999 6.003906v-0.03126l14.0625-14.066408 14.019531 14.019532 4.246092-4.246094-14.019529-14.015613 14.230467-14.226563-4.242186-4.242187-28.296875 28.292967v-28.593748z" style="fill:#ffffff"/>
 <path d="M 32 2 C 30.428502 2 28.854423 2.5850605 27.679688 3.7597656 L 3.7597656 27.683594 C 2.460141 28.983185 1.8843462 30.765758 2.0234375 32.498047 C 2.1343083 31.098695 2.7099225 29.73341 3.7597656 28.683594 L 27.679688 4.7597656 C 28.854423 3.5850605 30.428502 3 32 3 C 33.5715 3 35.143625 3.5850607 36.318359 4.7597656 L 60.238281 28.683594 C 61.288124 29.73341 61.86495 31.099905 61.976562 32.5 C 62.114731 30.76679 61.537906 28.983185 60.238281 27.683594 L 36.318359 3.7597656 C 35.143625 2.5850607 33.5715 2 32 2 z" style="fill:#ffffff;opacity:.2"/>
</svg>

<svg xmlns="http://www.w3.org/2000/svg" width="64" height="64" version="1">
 <path style="opacity:0.2" d="m 31.99913,3.0000606 c -1.571498,0 -3.144046,0.5857444 -4.318782,1.7604495 L 3.760426,28.683101 c -2.3494678,2.349408 -2.3461338,6.281165 0.0034,8.630575 L 27.68375,61.236267 c 2.349468,2.34941 6.28473,2.352742 8.634198,0.0034 L 60.2379,37.317106 c 2.349466,-2.34941 2.349468,-6.284533 0,-8.633941 L 36.317914,4.7605101 C 35.14318,3.5858052 33.57063,3.0000606 31.99913,3.0000606 Z"/>
 <path style="fill:#31afe1" d="m 31.99913,2.0000316 c -1.571498,0 -3.144046,0.5857444 -4.318782,1.7604495 L 3.760426,27.683071 c -2.3494678,2.349408 -2.3461338,6.281166 0.0034,8.630575 L 27.68375,60.236237 c 2.349468,2.34941 6.28473,2.352742 8.634198,0.0034 L 60.2379,36.317076 c 2.349466,-2.349409 2.349468,-6.284533 0,-8.633941 L 36.317914,3.7604811 C 35.14318,2.5857762 33.57063,2.0000316 31.99913,2.0000316 Z"/>
 <path style="opacity:0.2" d="m 18,14.440626 -5.999999,6.003905 0,25.101563 L 18,51.55 18,51.51875 32.0625,37.452342 46.082031,51.471874 50.328123,47.22578 36.308594,33.210157 50.539061,18.983594 46.296875,14.741407 18,43.034374 18,14.440626 Z"/>
 <path style="fill:#ffffff" d="m 18,13.441408 -5.999999,6.003906 0,25.101562 L 18,50.550782 18,50.519522 32.0625,36.453114 46.082031,50.472646 50.328123,46.226552 36.308594,32.210939 50.539061,17.984376 46.296875,13.742189 18,42.035156 18,13.441408 Z"/>
 <path style="fill:#ffffff;opacity:0.2" d="M 32 2 C 30.428502 2 28.854423 2.5850605 27.679688 3.7597656 L 3.7597656 27.683594 C 2.460141 28.983185 1.8843462 30.765758 2.0234375 32.498047 C 2.1343083 31.098695 2.7099225 29.73341 3.7597656 28.683594 L 27.679688 4.7597656 C 28.854423 3.5850605 30.428502 3 32 3 C 33.5715 3 35.143625 3.5850607 36.318359 4.7597656 L 60.238281 28.683594 C 61.288124 29.73341 61.86495 31.099905 61.976562 32.5 C 62.114731 30.76679 61.537906 28.983185 60.238281 27.683594 L 36.318359 3.7597656 C 35.143625 2.5850607 33.5715 2 32 2 z"/>
</svg>
